;FLAVOR:Marlin
;TIME:10783
;Filament used: 9.73758m
;Layer height: 0.28
;MINX:89.991
;MINY:52.85
;MINZ:0.28
;MAXX:145.01
;MAXY:182.15
;MAXZ:29.4
;TARGET_MACHINE.NAME:Creality Ender-3
;Generated with Cura_SteamEngine 5.6.0
M140 S50
M105
M190 S50
M104 S200
M105
M109 S200
M82 ;absolute extrusion mode
; Ender 3 Custom Start G-code
G92 E0 ; Reset Extruder
G28 ; Home all axes
G1 Z2.0 F3000 ; Move Z Axis up little to prevent scratching of Heat Bed
G1 X0.1 Y20 Z0.3 F5000.0 ; Move to start position
G1 X0.1 Y200.0 Z0.3 F1500.0 E15 ; Draw the first line
G1 X0.4 Y200.0 Z0.3 F5000.0 ; Move to side a little
G1 X0.4 Y20 Z0.3 F1500.0 E30 ; Draw the second line
G92 E0 ; Reset Extruder
G1 Z2.0 F3000 ; Move Z Axis up little to prevent scratching of Heat Bed
G1 X5 Y20 Z0.3 F5000.0 ; Move over to prevent blob squish
G92 E0
G92 E0
G1 F2700 E-5
;LAYER_COUNT:105
;LAYER:0
M107
G0 F6000 X91.622 Y58.113 Z0.28
;TYPE:SKIRT
G1 F2700 E0
G1 F1200 X92.167 Y57.304 E0.04542
G1 X92.758 Y56.576 E0.08908
G1 X93.46 Y55.851 E0.13608
G1 X94.17 Y55.237 E0.17978
G1 X94.989 Y54.647 E0.22678
G1 X95.828 Y54.151 E0.27217
G1 X96.642 Y53.76 E0.31422
G1 X97.619 Y53.392 E0.36283
G1 X98.523 Y53.142 E0.40651
G1 X99.525 Y52.959 E0.45393
G1 X100.696 Y52.863 E0.50864
G1 X101.303 Y52.85 E0.53691
G1 X133.314 Y52.85 E2.02748
G1 X134.194 Y52.863 E2.06846
G1 X135.166 Y52.922 E2.11381
G1 X136.129 Y53.068 E2.15916
G1 X137.076 Y53.299 E2.20455
G1 X137.964 Y53.599 E2.24819
G1 X138.856 Y53.989 E2.29353
G1 X139.739 Y54.476 E2.34048
G1 X140.49 Y54.978 E2.38254
G1 X141.305 Y55.636 E2.43132
G1 X142.003 Y56.314 E2.47663
G1 X142.639 Y57.051 E2.52196
G1 X143.209 Y57.841 E2.56732
G1 X143.671 Y58.617 E2.60937
G1 X144.125 Y59.559 E2.65806
G1 X144.454 Y60.437 E2.70172
G1 X144.723 Y61.409 E2.74868
G1 X144.9 Y62.375 E2.79441
G1 X144.995 Y63.505 E2.84722
G1 X145.01 Y64.18 E2.87866
G1 X145.008 Y166.801 E7.65712
G1 X144.996 Y167.537 E7.6914
G1 X144.937 Y168.508 E7.73669
G1 X144.805 Y169.401 E7.77873
G1 X144.653 Y170.084 E7.81131
G1 X144.568 Y170.416 E7.82727
G1 X144.274 Y171.365 E7.87353
G1 X143.906 Y172.265 E7.9188
G1 X143.461 Y173.131 E7.96414
G1 X142.963 Y173.92 E8.00759
G1 X142.544 Y174.486 E8.04038
G1 X142.271 Y174.83 E8.06083
G1 X141.632 Y175.562 E8.10607
G1 X140.956 Y176.214 E8.1498
G1 X140.193 Y176.831 E8.19549
G1 X139.21 Y177.556 E8.25237
G1 X137.068 Y179.178 E8.37748
G1 X136.27 Y179.806 E8.42476
G1 X135.476 Y180.372 E8.47017
G1 X134.637 Y180.864 E8.51546
G1 X133.757 Y181.281 E8.5608
G1 X132.844 Y181.618 E8.60612
G1 X131.903 Y181.874 E8.65153
G1 X130.938 Y182.045 E8.69716
G1 X129.827 Y182.135 E8.74907
G1 X129.17 Y182.15 E8.77967
G1 X106.05 Y182.149 E9.85623
G1 X105.312 Y182.137 E9.8906
G1 X104.34 Y182.078 E9.93594
G1 X103.377 Y181.932 E9.9813
G1 X102.43 Y181.701 E10.02669
G1 X101.574 Y181.413 E10.06874
G1 X100.619 Y180.995 E10.11728
G1 X99.827 Y180.561 E10.15933
G1 X98.72 Y179.8 E10.22189
G1 X97.999 Y179.233 E10.2646
G1 X95.843 Y177.594 E10.3907
G1 X94.78 Y176.81 E10.45221
G1 X94.022 Y176.196 E10.49763
G1 X93.323 Y175.515 E10.54307
G1 X92.688 Y174.778 E10.58837
G1 X92.415 Y174.431 E10.60893
G1 X91.848 Y173.637 E10.65436
G1 X91.357 Y172.797 E10.69967
G1 X90.94 Y171.918 E10.74497
G1 X90.615 Y171.041 E10.78852
G1 X90.356 Y170.12 E10.83307
G1 X90.153 Y169.167 E10.87844
G1 X90.035 Y168.21 E10.92334
G1 X90.005 Y167.556 E10.95383
G1 X89.991 Y166.688 E10.99425
G1 X89.992 Y64.359 E15.75912
G1 X90.004 Y63.658 E15.79176
G1 X90.064 Y62.685 E15.83715
G1 X90.211 Y61.724 E15.88242
G1 X90.442 Y60.776 E15.92786
G1 X90.744 Y59.887 E15.97158
G1 X91.151 Y58.965 E16.01851
G1 X91.622 Y58.113 E16.06384
G0 F6000 X91.954 Y58.336
G1 F1200 X92.478 Y57.556 E16.10759
G1 X93.069 Y56.828 E16.15125
G1 X93.722 Y56.154 E16.19495
G1 X94.432 Y55.54 E16.23866
G1 X95.193 Y54.991 E16.28235
G1 X96.001 Y54.512 E16.32609
G1 X96.815 Y54.121 E16.36814
G1 X97.726 Y53.778 E16.41347
G1 X98.63 Y53.528 E16.45714
G1 X99.558 Y53.358 E16.50107
G1 X100.705 Y53.263 E16.55467
G1 X101.312 Y53.25 E16.58294
G1 X133.308 Y53.25 E18.0728
G1 X134.17 Y53.262 E18.11295
G1 X135.107 Y53.318 E18.15666
G1 X136.035 Y53.457 E18.20035
G1 X136.948 Y53.678 E18.24409
G1 X137.804 Y53.966 E18.28614
G1 X138.696 Y54.356 E18.33148
G1 X139.517 Y54.809 E18.37514
G1 X140.268 Y55.311 E18.4172
G1 X141.027 Y55.923 E18.4626
G1 X141.701 Y56.576 E18.5063
G1 X142.315 Y57.285 E18.54997
G1 X142.865 Y58.046 E18.59369
G1 X143.327 Y58.822 E18.63575
G1 X143.75 Y59.699 E18.68109
G1 X144.079 Y60.577 E18.72474
G1 X144.33 Y61.482 E18.76848
G1 X144.501 Y62.409 E18.81237
G1 X144.596 Y63.539 E18.86517
G1 X144.61 Y64.18 E18.89503
G1 X144.608 Y166.795 E23.67321
G1 X144.597 Y167.513 E23.70665
G1 X144.541 Y168.45 E23.75036
G1 X144.409 Y169.343 E23.79239
G1 X144.265 Y169.985 E23.82303
G1 X144.18 Y170.317 E23.83899
G1 X143.904 Y171.214 E23.88269
G1 X143.55 Y172.083 E23.92638
G1 X143.122 Y172.918 E23.97007
G1 X142.641 Y173.682 E24.01211
G1 X142.231 Y174.237 E24.04424
G1 X141.969 Y174.567 E24.06386
G1 X141.354 Y175.274 E24.10749
G1 X140.678 Y175.926 E24.15123
G1 X139.956 Y176.509 E24.19444
G1 X138.973 Y177.234 E24.25131
G1 X136.827 Y178.859 E24.37665
G1 X136.037 Y179.481 E24.42347
G1 X135.273 Y180.027 E24.4672
G1 X134.465 Y180.503 E24.51087
G1 X133.618 Y180.906 E24.55454
G1 X132.738 Y181.232 E24.59824
G1 X131.832 Y181.48 E24.64198
G1 X130.905 Y181.646 E24.68583
G1 X129.818 Y181.735 E24.73662
G1 X129.17 Y181.75 E24.7668
G1 X106.056 Y181.749 E25.84308
G1 X105.336 Y181.738 E25.87661
G1 X104.399 Y181.682 E25.92032
G1 X103.471 Y181.543 E25.96402
G1 X102.558 Y181.322 E26.00776
G1 X101.702 Y181.034 E26.04981
G1 X100.811 Y180.644 E26.0951
G1 X100.019 Y180.21 E26.13715
G1 X98.967 Y179.485 E26.19664
G1 X98.246 Y178.919 E26.23933
G1 X96.085 Y177.276 E26.36573
G1 X95.031 Y176.499 E26.42671
G1 X94.301 Y175.909 E26.47041
G1 X93.626 Y175.254 E26.51421
G1 X93.002 Y174.53 E26.55871
G1 X92.74 Y174.198 E26.57841
G1 X92.193 Y173.434 E26.62216
G1 X91.718 Y172.625 E26.66584
G1 X91.315 Y171.778 E26.70952
G1 X91 Y170.932 E26.75156
G1 X90.747 Y170.036 E26.79491
G1 X90.55 Y169.118 E26.83863
G1 X90.435 Y168.191 E26.88212
G1 X90.405 Y167.549 E26.91205
G1 X90.391 Y166.688 E26.95215
G1 X90.392 Y64.365 E31.71673
G1 X90.403 Y63.682 E31.74854
G1 X90.46 Y62.745 E31.79225
G1 X90.6 Y61.818 E31.83591
G1 X90.821 Y60.905 E31.87965
G1 X91.123 Y60.016 E31.92337
G1 X91.501 Y59.158 E31.96703
G1 X91.954 Y58.336 E32.01073
G0 F6000 X92.286 Y58.559
G1 F1200 X92.789 Y57.808 E32.05282
G1 X93.357 Y57.106 E32.09487
G1 X93.984 Y56.456 E32.13692
G1 X94.666 Y55.864 E32.17897
G1 X95.398 Y55.335 E32.22102
G1 X96.174 Y54.873 E32.26308
G1 X96.988 Y54.482 E32.30513
G1 X97.833 Y54.163 E32.34718
G1 X98.703 Y53.921 E32.38923
G1 X99.591 Y53.757 E32.43128
G1 X100.714 Y53.663 E32.48376
G1 X101.321 Y53.65 E32.51203
G1 X133.303 Y53.65 E34.00124
G1 X134.147 Y53.661 E34.04055
G1 X135.049 Y53.714 E34.08262
G1 X135.942 Y53.846 E34.12465
G1 X136.82 Y54.057 E34.1667
G1 X137.676 Y54.345 E34.20875
G1 X138.503 Y54.707 E34.25079
G1 X139.295 Y55.142 E34.29287
G1 X140.046 Y55.644 E34.33493
G1 X140.749 Y56.211 E34.37698
G1 X141.399 Y56.838 E34.41904
G1 X141.991 Y57.52 E34.46109
G1 X142.521 Y58.251 E34.50313
G1 X142.983 Y59.027 E34.54519
G1 X143.376 Y59.84 E34.58723
G1 X143.694 Y60.685 E34.62927
G1 X143.937 Y61.555 E34.67134
G1 X144.102 Y62.443 E34.71339
G1 X144.197 Y63.573 E34.7662
G1 X144.21 Y64.18 E34.79447
G1 X144.208 Y166.789 E39.57237
G1 X144.198 Y167.49 E39.60502
G1 X144.145 Y168.392 E39.64709
G1 X144.013 Y169.285 E39.68912
G1 X143.878 Y169.885 E39.71776
G1 X143.797 Y170.2 E39.7329
G1 X143.533 Y171.064 E39.77497
G1 X143.194 Y171.901 E39.81702
G1 X142.783 Y172.705 E39.85907
G1 X142.302 Y173.469 E39.90111
G1 X141.917 Y173.989 E39.93123
G1 X141.667 Y174.305 E39.95
G1 X141.076 Y174.987 E39.99202
G1 X140.427 Y175.615 E40.03407
G1 X139.719 Y176.187 E40.07645
G1 X138.731 Y176.915 E40.1336
G1 X136.586 Y178.541 E40.25893
G1 X135.804 Y179.156 E40.30526
G1 X135.07 Y179.683 E40.34733
G1 X134.293 Y180.142 E40.38935
G1 X133.478 Y180.531 E40.4314
G1 X132.632 Y180.846 E40.47344
G1 X131.761 Y181.086 E40.51551
G1 X130.872 Y181.247 E40.55758
G1 X129.809 Y181.335 E40.60724
G1 X129.17 Y181.35 E40.63701
G1 X106.062 Y181.349 E41.71301
G1 X105.359 Y181.339 E41.74575
G1 X104.457 Y181.286 E41.78782
G1 X103.564 Y181.154 E41.82986
G1 X102.686 Y180.943 E41.8719
G1 X101.83 Y180.655 E41.91396
G1 X101.003 Y180.293 E41.956
G1 X100.211 Y179.859 E41.99805
G1 X99.214 Y179.17 E42.05448
G1 X98.493 Y178.605 E42.09713
G1 X96.327 Y176.958 E42.22384
G1 X95.282 Y176.188 E42.28428
G1 X94.579 Y175.621 E42.32633
G1 X93.929 Y174.993 E42.36842
G1 X93.316 Y174.283 E42.4121
G1 X93.065 Y173.964 E42.431
G1 X92.538 Y173.231 E42.47304
G1 X92.079 Y172.453 E42.5151
G1 X91.69 Y171.638 E42.55715
G1 X91.375 Y170.792 E42.59918
G1 X91.138 Y169.951 E42.63987
G1 X90.947 Y169.068 E42.68194
G1 X90.835 Y168.172 E42.72398
G1 X90.805 Y167.542 E42.75335
G1 X90.791 Y166.688 E42.79312
G1 X90.792 Y64.371 E47.55743
G1 X90.802 Y63.706 E47.5884
G1 X90.856 Y62.804 E47.63048
G1 X90.989 Y61.911 E47.67252
G1 X91.2 Y61.033 E47.71456
G1 X91.489 Y60.177 E47.75663
G1 X91.852 Y59.35 E47.79869
G1 X92.286 Y58.559 E47.8407
G1 F2700 E42.8407
;MESH:bateria.stl
G0 F6000 X102.831 Y64.27
G0 X128.9 Y170.55
;TYPE:WALL-INNER
G1 F2700 E47.8407
G1 F1200 X128.9 Y168.07 E47.95618
G1 X128.956 Y167.816 E47.96829
G1 X129.039 Y167.684 E47.97555
G1 X129.318 Y167.481 E47.99162
G1 X130.329 Y167.412 E48.0388
G1 X130.904 Y167.208 E48.06721
G1 X130.904 Y64.45 E52.85206
G1 X104.096 Y64.45 E54.10035
G1 X104.097 Y167.207 E58.88514
G1 X104.677 Y167.413 E58.9138
G1 X105.682 Y167.481 E58.96071
G1 X105.961 Y167.684 E58.97678
G1 X106.1 Y167.957 E58.99104
G1 X106.1 Y170.55 E59.11178
G1 X128.9 Y170.55 E60.17344
G0 F6000 X129.3 Y170.95
;TYPE:WALL-OUTER
G1 F1200 X129.3 Y168.006 E60.31053
G1 X129.41 Y167.875 E60.31849
G1 X130.411 Y167.808 E60.36521
G1 X131.166 Y167.539 E60.40253
G1 X131.304 Y167.297 E60.4155
G1 X131.304 Y64.05 E65.22312
G1 X103.696 Y64.05 E66.50866
G1 X103.697 Y167.298 E71.31632
G1 X103.836 Y167.541 E71.32935
G1 X104.595 Y167.809 E71.36684
G1 X105.561 Y167.873 E71.41191
G1 X105.654 Y167.941 E71.41728
G1 X105.7 Y168.07 E71.42366
G1 X105.7 Y170.95 E71.55776
G1 X129.3 Y170.95 E72.65668
G0 F6000 X129.03 Y170.68
G0 X128.8 Y170.19
G0 X128.54 Y170.19
;TYPE:SKIN
G1 F1200 X106.46 Y170.19 E73.68481
G1 X106.455 Y167.889 E73.79196
G1 X106.304 Y167.543 E73.80954
G1 X106.16 Y167.37 E73.82002
G1 X105.896 Y167.198 E73.83469
G1 X105.597 Y167.115 E73.84914
G1 X104.751 Y167.057 E73.88862
G1 X104.457 Y166.952 E73.90316
G1 X104.456 Y64.81 E78.65932
G1 X130.544 Y64.81 E79.87409
G1 X130.544 Y166.953 E84.63029
G1 X130.258 Y167.055 E84.64443
G1 X129.437 Y167.11 E84.68275
G1 X128.966 Y167.266 E84.70585
G1 X128.697 Y167.543 E84.72383
G1 X128.545 Y167.889 E84.74143
G1 X128.54 Y170.19 E84.84857
G0 F6000 X128.8 Y170.19
G0 X107.198 Y170.45
G0 X107.198 Y169.989
G1 F1200 X106.659 Y169.451 E84.88403
G0 F6000 X106.659 Y168.885
G1 F1200 X107.763 Y169.989 E84.95673
G0 F6000 X108.329 Y169.989
G1 F1200 X106.659 Y168.319 E85.06671
G0 F6000 X106.582 Y167.676
G1 F1200 X108.895 Y169.989 E85.21902
G0 F6000 X109.46 Y169.989
G1 F1200 X104.656 Y165.184 E85.5354
G0 F6000 X104.656 Y165.75
G1 F1200 X105.881 Y166.975 E85.61607
G0 F6000 X105.225 Y166.885
G1 F1200 X104.656 Y166.315 E85.65358
G0 F6000 X104.196 Y166.315
G0 X104.196 Y164.618
G0 X104.656 Y164.618
G1 F1200 X110.026 Y169.989 E86.00723
G0 F6000 X110.592 Y169.989
G1 F1200 X104.656 Y164.053 E86.39813
G0 F6000 X104.656 Y163.487
G1 F1200 X111.157 Y169.989 E86.82626
G0 F6000 X111.723 Y169.989
G1 F1200 X104.656 Y162.921 E87.29167
G0 F6000 X104.656 Y162.355
G1 F1200 X112.289 Y169.989 E87.79435
G0 F6000 X112.854 Y169.989
G1 F1200 X104.656 Y161.79 E88.33423
G0 F6000 X104.656 Y161.224
G1 F1200 X113.42 Y169.989 E88.91139
G0 F6000 X113.986 Y169.989
G1 F1200 X104.656 Y160.658 E89.52582
G0 F6000 X104.656 Y160.093
G1 F1200 X114.552 Y169.989 E90.17749
G0 F6000 X115.117 Y169.989
G1 F1200 X104.656 Y159.527 E90.8664
G0 F6000 X104.656 Y158.961
G1 F1200 X115.683 Y169.989 E91.59258
G0 F6000 X116.249 Y169.989
G1 F1200 X104.656 Y158.396 E92.356
G0 F6000 X104.656 Y157.83
G1 F1200 X116.814 Y169.989 E93.15665
G0 F6000 X117.38 Y169.989
G1 F1200 X104.656 Y157.264 E93.99458
G0 F6000 X104.656 Y156.699
G1 F1200 X117.946 Y169.989 E94.86975
G0 F6000 X118.511 Y169.989
G1 F1200 X104.656 Y156.133 E95.78216
G0 F6000 X104.656 Y155.567
G1 F1200 X119.077 Y169.989 E96.73184
G0 F6000 X119.643 Y169.989
G1 F1200 X104.656 Y155.002 E97.71876
G0 F6000 X104.656 Y154.436
G1 F1200 X120.208 Y169.989 E98.74292
G0 F6000 X120.774 Y169.989
G1 F1200 X104.656 Y153.87 E99.80435
G0 F6000 X104.656 Y153.304
G1 F1200 X121.34 Y169.989 E100.90305
G0 F6000 X121.905 Y169.989
G1 F1200 X104.656 Y152.739 E102.03896
G0 F6000 X104.656 Y152.173
G1 F1200 X122.471 Y169.989 E103.21214
G0 F6000 X123.037 Y169.989
G1 F1200 X104.656 Y151.607 E104.4226
G0 F6000 X104.656 Y151.042
G1 F1200 X123.602 Y169.989 E105.67026
G0 F6000 X124.168 Y169.989
G1 F1200 X104.656 Y150.476 E106.95519
G0 F6000 X104.656 Y149.91
G1 F1200 X124.734 Y169.989 E108.27739
G0 F6000 X125.3 Y169.989
G1 F1200 X104.656 Y149.345 E109.63683
G0 F6000 X104.656 Y148.779
G1 F1200 X125.865 Y169.989 E111.03352
G0 F6000 X126.431 Y169.989
G1 F1200 X104.656 Y148.213 E112.46747
G0 F6000 X104.656 Y147.648
G1 F1200 X126.997 Y169.989 E113.93866
G0 F6000 X127.562 Y169.989
G1 F1200 X104.656 Y147.082 E115.44709
G0 F6000 X104.656 Y146.516
G1 F1200 X128.128 Y169.989 E116.9928
G0 F6000 X128.34 Y169.635
G1 F1200 X104.656 Y145.951 E118.55243
G0 F6000 X104.656 Y145.385
G1 F1200 X128.34 Y169.069 E120.11206
G0 F6000 X128.34 Y168.504
G1 F1200 X104.656 Y144.819 E121.67173
G0 F6000 X104.656 Y144.254
G1 F1200 X128.34 Y167.938 E123.23136
G0 F6000 X128.486 Y167.519
G1 F1200 X104.656 Y143.688 E124.80064
G0 F6000 X104.656 Y143.122
G1 F1200 X128.742 Y167.209 E126.38678
G0 F6000 X129.104 Y167.005
G1 F1200 X104.656 Y142.556 E127.99675
G0 F6000 X104.656 Y141.991
G1 F1200 X129.564 Y166.899 E129.63699
G0 F6000 X130.094 Y166.864
G1 F1200 X104.656 Y141.425 E131.31215
G0 F6000 X104.656 Y140.859
G1 F1200 X130.344 Y166.548 E133.00379
G0 F6000 X130.344 Y165.982
G1 F1200 X104.656 Y140.294 E134.69538
G0 F6000 X104.656 Y139.728
G1 F1200 X130.344 Y165.417 E136.38702
G0 F6000 X130.344 Y164.851
G1 F1200 X104.656 Y139.162 E138.07865
G0 F6000 X104.656 Y138.597
G1 F1200 X130.344 Y164.285 E139.77025
G0 F6000 X130.344 Y163.719
G1 F1200 X104.656 Y138.031 E141.46184
G0 F6000 X104.656 Y137.465
G1 F1200 X130.344 Y163.154 E143.15348
G0 F6000 X130.344 Y162.588
G1 F1200 X104.656 Y136.9 E144.84507
G0 F6000 X104.656 Y136.334
G1 F1200 X130.344 Y162.022 E146.53667
G0 F6000 X130.344 Y161.457
G1 F1200 X104.656 Y135.768 E148.22831
G0 F6000 X104.656 Y135.203
G1 F1200 X130.344 Y160.891 E149.9199
G0 F6000 X130.344 Y160.325
G1 F1200 X104.656 Y134.637 E151.6115
G0 F6000 X104.656 Y134.071
G1 F1200 X130.344 Y159.76 E153.30313
G0 F6000 X130.344 Y159.194
G1 F1200 X104.656 Y133.506 E154.99473
G0 F6000 X104.656 Y132.94
G1 F1200 X130.344 Y158.628 E156.68633
G0 F6000 X130.344 Y158.063
G1 F1200 X104.655 Y132.373 E158.37803
G0 F6000 X104.655 Y131.808
G1 F1200 X130.344 Y157.497 E160.06969
G0 F6000 X130.344 Y156.931
G1 F1200 X104.655 Y131.242 E161.76136
G0 F6000 X104.655 Y130.676
G1 F1200 X130.344 Y156.366 E163.45306
G0 F6000 X130.344 Y155.8
G1 F1200 X104.655 Y130.111 E165.14472
G0 F6000 X104.655 Y129.545
G1 F1200 X130.344 Y155.234 E166.83638
G0 F6000 X130.344 Y154.669
G1 F1200 X104.655 Y128.979 E168.52808
G0 F6000 X104.655 Y128.414
G1 F1200 X130.344 Y154.103 E170.21975
G0 F6000 X130.344 Y153.537
G1 F1200 X104.655 Y127.848 E171.91141
G0 F6000 X104.655 Y127.282
G1 F1200 X130.344 Y152.971 E173.60308
G0 F6000 X130.344 Y152.406
G1 F1200 X104.655 Y126.717 E175.29474
G0 F6000 X104.655 Y126.151
G1 F1200 X130.344 Y151.84 E176.9864
G0 F6000 X130.344 Y151.274
G1 F1200 X104.655 Y125.585 E178.67807
G0 F6000 X104.655 Y125.02
G1 F1200 X130.344 Y150.709 E180.36973
G0 F6000 X130.344 Y150.143
G1 F1200 X104.655 Y124.454 E182.0614
G0 F6000 X104.655 Y123.888
G1 F1200 X130.344 Y149.577 E183.75306
G0 F6000 X130.344 Y149.012
