;FLAVOR:Marlin
;TIME:2915
;Filament used: 2.87268m
;Layer height: 0.28
;MINX:75.75
;MINY:67.25
;MINZ:0.28
;MAXX:168.973
;MAXY:167.75
;MAXZ:3.36
;TARGET_MACHINE.NAME:Creality Ender-3
;Generated with Cura_SteamEngine 5.6.0
M140 S50
M105
M190 S50
M104 S200
M105
M109 S200
M82 ;absolute extrusion mode
; Ender 3 Custom Start G-code
G92 E0 ; Reset Extruder
G28 ; Home all axes
G1 Z2.0 F3000 ; Move Z Axis up little to prevent scratching of Heat Bed
G1 X0.1 Y20 Z0.3 F5000.0 ; Move to start position
G1 X0.1 Y200.0 Z0.3 F1500.0 E15 ; Draw the first line
G1 X0.4 Y200.0 Z0.3 F5000.0 ; Move to side a little
G1 X0.4 Y20 Z0.3 F1500.0 E30 ; Draw the second line
G92 E0 ; Reset Extruder
G1 Z2.0 F3000 ; Move Z Axis up little to prevent scratching of Heat Bed
G1 X5 Y20 Z0.3 F5000.0 ; Move over to prevent blob squish
G92 E0
G92 E0
G1 F2700 E-5
;LAYER_COUNT:12
;LAYER:0
M107
G0 F6000 X83.543 Y86.538 Z0.28
;TYPE:SKIRT
G1 F2700 E0
G1 F1200 X84.118 Y86.002 E0.0366
G1 X84.894 Y85.314 E0.08489
G1 X85.445 Y84.854 E0.11832
G1 X85.809 Y84.57 E0.13981
G1 X86.616 Y83.976 E0.18647
G1 X87.381 Y83.449 E0.22973
G1 X87.984 Y83.064 E0.26304
G1 X88.754 Y82.607 E0.30474
G1 X89.285 Y82.313 E0.333
G1 X90.095 Y81.893 E0.37548
G1 X90.586 Y81.656 E0.40087
G1 X91.448 Y81.27 E0.44485
G1 X92.046 Y81.024 E0.47496
G1 X92.716 Y80.765 E0.50841
G1 X93.139 Y80.614 E0.52932
G1 X94.041 Y80.324 E0.57344
G1 X95.043 Y80.043 E0.6219
G1 X96.016 Y79.807 E0.66852
G1 X98.498 Y79.164 E0.78791
G1 X100.906 Y78.465 E0.90466
G1 X103.367 Y77.677 E1.02499
G1 X105.683 Y76.862 E1.13931
G1 X108.041 Y75.956 E1.25694
G1 X110.396 Y74.974 E1.37575
G1 X112.658 Y73.955 E1.49127
G1 X114.915 Y72.861 E1.60806
G1 X117.181 Y71.681 E1.72702
G1 X119.366 Y70.464 E1.84348
G1 X122.158 Y68.801 E1.9948
G1 X123.032 Y68.335 E2.04092
G1 X123.862 Y67.979 E2.08298
G1 X124.857 Y67.655 E2.1317
G1 X125.806 Y67.439 E2.17702
G1 X126.761 Y67.308 E2.22191
G1 X127.409 Y67.267 E2.25214
G1 X128.079 Y67.25 E2.28335
G1 X157.276 Y67.25 E3.64289
G1 X158.156 Y67.263 E3.68387
G1 X159.128 Y67.322 E3.72921
G1 X160.091 Y67.468 E3.77456
G1 X161.038 Y67.699 E3.81995
G1 X161.926 Y67.999 E3.8636
G1 X162.818 Y68.389 E3.90893
G1 X163.701 Y68.876 E3.95588
G1 X164.452 Y69.378 E3.99795
G1 X165.267 Y70.036 E4.04672
G1 X165.965 Y70.714 E4.09203
G1 X166.601 Y71.451 E4.13736
G1 X167.171 Y72.241 E4.18272
G1 X167.633 Y73.017 E4.22478
G1 X168.087 Y73.959 E4.27347
G1 X168.416 Y74.837 E4.31713
G1 X168.685 Y75.809 E4.36409
G1 X168.862 Y76.775 E4.40982
G1 X168.957 Y77.905 E4.46262
G1 X168.972 Y78.58 E4.49406
G1 X168.973 Y155.882 E8.09357
G1 X168.96 Y156.787 E8.13571
G1 X168.902 Y157.759 E8.18105
G1 X168.756 Y158.723 E8.22645
G1 X168.525 Y159.669 E8.2718
G1 X168.213 Y160.591 E8.31712
G1 X167.82 Y161.482 E8.36246
G1 X167.351 Y162.334 E8.40775
G1 X166.849 Y163.085 E8.44981
G1 X166.192 Y163.899 E8.49852
G1 X165.514 Y164.599 E8.5439
G1 X164.778 Y165.235 E8.58919
G1 X164.047 Y165.765 E8.63124
G1 X163.149 Y166.301 E8.67993
G1 X162.302 Y166.708 E8.72369
G1 X161.354 Y167.064 E8.77084
G1 X160.301 Y167.35 E8.82165
G1 X159.926 Y167.43 E8.83951
G1 X158.941 Y167.596 E8.88602
G1 X158.495 Y167.649 E8.90693
G1 X157.433 Y167.722 E8.9565
G1 X155.905 Y167.75 E9.02766
G1 X128.319 Y167.749 E10.31218
G1 X127.581 Y167.737 E10.34655
G1 X126.609 Y167.678 E10.3919
G1 X125.646 Y167.532 E10.43725
G1 X124.699 Y167.301 E10.48264
G1 X123.81 Y167 E10.52634
G1 X122.89 Y166.595 E10.57315
G1 X122.125 Y166.178 E10.61372
G1 X119.467 Y164.587 E10.75796
G1 X117.263 Y163.357 E10.87549
G1 X115.024 Y162.19 E10.99306
G1 X112.756 Y161.088 E11.11047
G1 X110.473 Y160.055 E11.22716
G1 X108.146 Y159.082 E11.3446
G1 X105.768 Y158.167 E11.46325
G1 X103.436 Y157.344 E11.5784
G1 X101.031 Y156.571 E11.69603
G1 X98.576 Y155.857 E11.81508
G1 X96.279 Y155.258 E11.92561
G1 X94.907 Y154.922 E11.99139
G1 X94.285 Y154.748 E12.02146
G1 X93.776 Y154.592 E12.04625
G1 X92.623 Y154.197 E12.103
G1 X91.667 Y153.82 E12.15086
G1 X90.862 Y153.47 E12.19173
G1 X90.311 Y153.211 E12.22008
G1 X89.514 Y152.809 E12.26164
G1 X89.065 Y152.569 E12.28535
G1 X88.507 Y152.247 E12.31535
G1 X87.76 Y151.791 E12.3561
G1 X87.316 Y151.506 E12.38067
G1 X86.674 Y151.068 E12.41686
G1 X86.22 Y150.741 E12.44291
G1 X85.751 Y150.385 E12.47033
G1 X85.353 Y150.067 E12.49405
G1 X84.577 Y149.415 E12.54124
G1 X84.097 Y148.985 E12.57125
G1 X83.486 Y148.405 E12.61048
G1 X83.111 Y148.029 E12.63521
G1 X82.569 Y147.451 E12.6721
G1 X81.824 Y146.607 E12.72452
G1 X81.356 Y146.039 E12.75879
G1 X80.85 Y145.38 E12.79748
G1 X80.521 Y144.929 E12.82348
G1 X80.044 Y144.234 E12.86273
G1 X79.705 Y143.707 E12.89191
G1 X79.217 Y142.899 E12.93586
G1 X78.911 Y142.357 E12.96484
G1 X78.578 Y141.724 E12.99815
G1 X78.365 Y141.295 E13.02045
G1 X77.926 Y140.343 E13.06926
G1 X77.617 Y139.608 E13.10639
G1 X77.28 Y138.731 E13.15014
G1 X77.132 Y138.304 E13.17118
G1 X76.873 Y137.492 E13.21087
G1 X76.685 Y136.848 E13.24211
G1 X76.412 Y135.766 E13.29407
G1 X76.278 Y135.136 E13.32406
G1 X76.087 Y134.075 E13.37426
G1 X75.962 Y133.235 E13.4138
G1 X75.847 Y132.154 E13.46442
G1 X75.809 Y131.632 E13.48879
G1 X75.76 Y130.433 E13.54467
G1 X75.75 Y129.436 E13.5911
G1 X75.755 Y105.092 E14.72466
G1 X75.764 Y104.645 E14.74548
G1 X75.821 Y103.322 E14.80714
G1 X75.876 Y102.542 E14.84355
G1 X75.928 Y102.052 E14.86649
G1 X76.024 Y101.317 E14.90101
G1 X76.104 Y100.792 E14.92574
G1 X76.312 Y99.692 E14.97786
G1 X76.471 Y98.977 E15.01197
G1 X76.603 Y98.448 E15.03736
G1 X76.793 Y97.763 E15.07046
G1 X77.092 Y96.813 E15.11683
G1 X77.246 Y96.368 E15.13876
G1 X77.515 Y95.65 E15.17446
G1 X77.713 Y95.161 E15.19903
G1 X78.078 Y94.314 E15.24198
G1 X78.364 Y93.706 E15.27326
G1 X78.746 Y92.955 E15.3125
G1 X78.974 Y92.534 E15.33479
G1 X79.283 Y91.999 E15.36356
G1 X79.893 Y91.001 E15.41802
G1 X80.269 Y90.429 E15.4499
G1 X80.708 Y89.804 E15.48546
G1 X81.03 Y89.373 E15.51051
G1 X81.483 Y88.804 E15.54438
G1 X82.106 Y88.061 E15.58953
G1 X82.52 Y87.595 E15.61855
G1 X83.093 Y86.988 E15.65742
G1 X83.543 Y86.538 E15.68706
G0 F6000 X83.816 Y86.831
G1 F1200 X84.391 Y86.295 E15.72366
G1 X85.151 Y85.621 E15.77096
G1 X85.691 Y85.169 E15.80375
G1 X86.046 Y84.892 E15.82472
G1 X86.843 Y84.305 E15.87081
G1 X87.596 Y83.786 E15.91339
G1 X88.188 Y83.408 E15.9461
G1 X88.948 Y82.957 E15.98725
G1 X89.469 Y82.668 E16.01499
G1 X90.269 Y82.253 E16.05696
G1 X90.749 Y82.021 E16.08178
G1 X91.6 Y81.64 E16.1252
G1 X92.19 Y81.397 E16.15491
G1 X92.85 Y81.142 E16.18786
G1 X93.262 Y80.995 E16.20822
G1 X94.149 Y80.709 E16.25162
G1 X95.138 Y80.432 E16.29945
G1 X96.111 Y80.195 E16.34608
G1 X98.604 Y79.549 E16.466
G1 X101.028 Y78.846 E16.58352
G1 X103.489 Y78.058 E16.70384
G1 X105.816 Y77.239 E16.81871
G1 X108.195 Y76.325 E16.93738
G1 X110.56 Y75.339 E17.0567
G1 X112.822 Y74.32 E17.17222
G1 X115.1 Y73.216 E17.29009
G1 X117.366 Y72.036 E17.40906
G1 X119.571 Y70.808 E17.52658
G1 X122.347 Y69.154 E17.67705
G1 X123.19 Y68.703 E17.72156
G1 X124.02 Y68.347 E17.76362
G1 X124.946 Y68.045 E17.80897
G1 X125.861 Y67.835 E17.85268
G1 X126.786 Y67.707 E17.89617
G1 X127.419 Y67.667 E17.9257
G1 X128.089 Y67.65 E17.95691
G1 X157.27 Y67.65 E19.3157
G1 X158.132 Y67.662 E19.35584
G1 X159.069 Y67.718 E19.39955
G1 X159.997 Y67.857 E19.44324
G1 X160.91 Y68.078 E19.48698
G1 X161.766 Y68.366 E19.52904
G1 X162.658 Y68.756 E19.57437
G1 X163.479 Y69.209 E19.61803
G1 X164.23 Y69.711 E19.6601
G1 X164.989 Y70.323 E19.7055
G1 X165.663 Y70.976 E19.74919
G1 X166.277 Y71.685 E19.79287
G1 X166.827 Y72.446 E19.83659
G1 X167.289 Y73.222 E19.87864
G1 X167.712 Y74.099 E19.92398
G1 X168.041 Y74.977 E19.96764
G1 X168.292 Y75.882 E20.01137
G1 X168.463 Y76.809 E20.05526
G1 X168.558 Y77.939 E20.10807
G1 X168.572 Y78.58 E20.13792
G1 X168.573 Y155.877 E23.73719
G1 X168.561 Y156.764 E23.7785
G1 X168.506 Y157.7 E23.82216
G1 X168.367 Y158.629 E23.8659
G1 X168.146 Y159.541 E23.90959
G1 X167.847 Y160.43 E23.95327
G1 X167.469 Y161.29 E23.99701
G1 X167.018 Y162.112 E24.04067
G1 X166.516 Y162.863 E24.08273
G1 X165.904 Y163.621 E24.1281
G1 X165.252 Y164.297 E24.17183
G1 X164.543 Y164.911 E24.2155
G1 X163.812 Y165.441 E24.25755
G1 X162.976 Y165.94 E24.30288
G1 X162.129 Y166.347 E24.34664
G1 X161.249 Y166.678 E24.39042
G1 X160.217 Y166.959 E24.44022
G1 X159.859 Y167.036 E24.45727
G1 X158.893 Y167.199 E24.50289
G1 X158.467 Y167.25 E24.52287
G1 X157.426 Y167.322 E24.57146
G1 X155.905 Y167.35 E24.64229
G1 X128.325 Y167.349 E25.92653
G1 X127.605 Y167.338 E25.96006
G1 X126.668 Y167.282 E26.00377
G1 X125.74 Y167.143 E26.04746
G1 X124.827 Y166.922 E26.0912
G1 X123.971 Y166.634 E26.13326
G1 X123.081 Y166.244 E26.17851
G1 X122.33 Y165.835 E26.21833
G1 X119.662 Y164.238 E26.36311
G1 X117.448 Y163.002 E26.48118
G1 X115.209 Y161.835 E26.59875
G1 X112.931 Y160.728 E26.71669
G1 X110.627 Y159.686 E26.83443
G1 X108.3 Y158.713 E26.95188
G1 X105.912 Y157.794 E27.07102
G1 X103.558 Y156.963 E27.18727
G1 X101.153 Y156.19 E27.30489
G1 X98.688 Y155.473 E27.42443
G1 X96.374 Y154.869 E27.53579
G1 X95.002 Y154.533 E27.60157
G1 X94.402 Y154.366 E27.63057
G1 X93.906 Y154.214 E27.65472
G1 X92.77 Y153.825 E27.71063
G1 X91.826 Y153.453 E27.75788
G1 X91.032 Y153.108 E27.79819
G1 X90.491 Y152.854 E27.82602
G1 X89.702 Y152.456 E27.86717
G1 X89.265 Y152.223 E27.89023
G1 X88.716 Y151.906 E27.91975
G1 X87.976 Y151.454 E27.96013
G1 X87.541 Y151.175 E27.98419
G1 X86.908 Y150.744 E28.01985
G1 X86.462 Y150.422 E28.04546
G1 X86.001 Y150.072 E28.07242
G1 X85.603 Y149.754 E28.09614
G1 X84.844 Y149.117 E28.14228
G1 X84.372 Y148.695 E28.17176
G1 X83.769 Y148.123 E28.21046
G1 X83.403 Y147.756 E28.2346
G1 X82.869 Y147.186 E28.27096
G1 X82.132 Y146.352 E28.32279
G1 X81.673 Y145.796 E28.35636
G1 X81.173 Y145.144 E28.39462
G1 X80.851 Y144.703 E28.42005
G1 X80.38 Y144.017 E28.45879
G1 X80.047 Y143.5 E28.48743
G1 X79.565 Y142.702 E28.53084
G1 X79.265 Y142.171 E28.55924
G1 X78.936 Y141.546 E28.59213
G1 X78.728 Y141.128 E28.61387
G1 X78.295 Y140.188 E28.66206
G1 X77.99 Y139.465 E28.6986
G1 X77.658 Y138.6 E28.74174
G1 X77.513 Y138.183 E28.7623
G1 X77.257 Y137.38 E28.80154
G1 X77.073 Y136.75 E28.8321
G1 X76.803 Y135.683 E28.88335
G1 X76.672 Y135.065 E28.91277
G1 X76.483 Y134.016 E28.9624
G1 X76.36 Y133.193 E29.00115
G1 X76.246 Y132.125 E29.05116
G1 X76.209 Y131.615 E29.07497
G1 X76.16 Y130.429 E29.13025
G1 X76.15 Y129.436 E29.17649
G1 X76.155 Y105.1 E30.30967
G1 X76.164 Y104.662 E30.33007
G1 X76.22 Y103.35 E30.39122
G1 X76.274 Y102.584 E30.42698
G1 X76.325 Y102.103 E30.4495
G1 X76.419 Y101.377 E30.48359
G1 X76.497 Y100.866 E30.50766
G1 X76.702 Y99.779 E30.55917
G1 X76.859 Y99.074 E30.5928
G1 X76.989 Y98.555 E30.61771
G1 X77.175 Y97.883 E30.65018
G1 X77.47 Y96.944 E30.69601
G1 X77.621 Y96.508 E30.71749
G1 X77.886 Y95.8 E30.7527
G1 X78.08 Y95.319 E30.77685
G1 X78.44 Y94.484 E30.81919
G1 X78.721 Y93.887 E30.84991
G1 X79.098 Y93.145 E30.88867
G1 X79.32 Y92.734 E30.91042
G1 X79.624 Y92.208 E30.93871
G1 X80.227 Y91.221 E30.99256
G1 X80.596 Y90.659 E31.02387
G1 X81.029 Y90.043 E31.05893
G1 X81.343 Y89.622 E31.08338
G1 X81.79 Y89.061 E31.11679
G1 X82.405 Y88.327 E31.16138
G1 X82.811 Y87.87 E31.18984
G1 X83.384 Y87.263 E31.22871
G1 X83.816 Y86.831 E31.25716
G0 F6000 X84.089 Y87.124
G1 F1200 X84.664 Y86.588 E31.29376
G1 X85.408 Y85.928 E31.34007
G1 X85.938 Y85.484 E31.37226
G1 X86.283 Y85.214 E31.39266
G1 X87.07 Y84.634 E31.43819
G1 X87.812 Y84.123 E31.48014
G1 X88.392 Y83.752 E31.5122
G1 X89.142 Y83.307 E31.55281
G1 X89.653 Y83.023 E31.58003
G1 X90.444 Y82.613 E31.62151
G1 X90.912 Y82.386 E31.64573
G1 X91.752 Y82.01 E31.68859
G1 X92.334 Y81.77 E31.7179
G1 X92.985 Y81.519 E31.75039
G1 X93.385 Y81.376 E31.77017
G1 X94.257 Y81.094 E31.81284
G1 X95.233 Y80.821 E31.86004
G1 X96.206 Y80.583 E31.90668
G1 X98.71 Y79.934 E32.02713
G1 X101.15 Y79.227 E32.14542
G1 X103.611 Y78.439 E32.26574
G1 X105.956 Y77.614 E32.3815
G1 X108.339 Y76.698 E32.50037
G1 X110.724 Y75.704 E32.62069
G1 X112.996 Y74.681 E32.73671
G1 X115.275 Y73.576 E32.85465
G1 X117.551 Y72.391 E32.97413
G1 X119.776 Y71.152 E33.09272
G1 X122.552 Y69.498 E33.24319
G1 X123.348 Y69.071 E33.28525
G1 X124.178 Y68.715 E33.3273
G1 X125.036 Y68.435 E33.36933
G1 X125.916 Y68.231 E33.41139
G1 X126.811 Y68.106 E33.45347
G1 X127.429 Y68.067 E33.4823
G1 X128.099 Y68.05 E33.51351
G1 X157.265 Y68.05 E34.8716
G1 X158.109 Y68.061 E34.91091
G1 X159.011 Y68.114 E34.95298
G1 X159.904 Y68.246 E34.99501
G1 X160.782 Y68.457 E35.03706
G1 X161.638 Y68.745 E35.07911
G1 X162.465 Y69.107 E35.12115
G1 X163.257 Y69.542 E35.16323
G1 X164.008 Y70.044 E35.20529
G1 X164.711 Y70.611 E35.24734
G1 X165.361 Y71.238 E35.2894
G1 X165.953 Y71.92 E35.33145
G1 X166.483 Y72.651 E35.37349
G1 X166.945 Y73.427 E35.41554
G1 X167.338 Y74.24 E35.45759
G1 X167.656 Y75.085 E35.49963
G1 X167.899 Y75.955 E35.54169
G1 X168.064 Y76.843 E35.58375
G1 X168.159 Y77.973 E35.63655
G1 X168.172 Y78.58 E35.66483
G1 X168.173 Y155.872 E39.26386
G1 X168.162 Y156.741 E39.30433
G1 X168.11 Y157.642 E39.34636
G1 X167.978 Y158.536 E39.38844
G1 X167.767 Y159.414 E39.43048
G1 X167.48 Y160.27 E39.47252
G1 X167.118 Y161.098 E39.5146
G1 X166.685 Y161.89 E39.55663
G1 X166.183 Y162.641 E39.5987
G1 X165.616 Y163.344 E39.64075
G1 X164.99 Y163.995 E39.6828
G1 X164.308 Y164.587 E39.72486
G1 X163.577 Y165.117 E39.7669
G1 X162.802 Y165.58 E39.80894
G1 X161.988 Y165.973 E39.85103
G1 X161.144 Y166.292 E39.89304
G1 X160.132 Y166.568 E39.94188
G1 X159.792 Y166.642 E39.95809
G1 X158.845 Y166.802 E40.00281
G1 X158.439 Y166.851 E40.02185
G1 X157.419 Y166.922 E40.06946
G1 X155.905 Y166.95 E40.13997
G1 X128.331 Y166.949 E41.42393
G1 X127.628 Y166.939 E41.45667
G1 X126.726 Y166.886 E41.49874
G1 X125.833 Y166.754 E41.54078
G1 X124.955 Y166.543 E41.58282
G1 X124.099 Y166.255 E41.62488
G1 X123.272 Y165.893 E41.66691
G1 X122.535 Y165.492 E41.70598
G1 X119.857 Y163.889 E41.85132
G1 X117.633 Y162.647 E41.96993
G1 X115.394 Y161.48 E42.0875
G1 X113.106 Y160.368 E42.20595
G1 X110.781 Y159.317 E42.32476
G1 X108.454 Y158.344 E42.44221
G1 X106.056 Y157.421 E42.56185
G1 X103.68 Y156.582 E42.67919
G1 X101.275 Y155.809 E42.79681
G1 X98.8 Y155.089 E42.91684
G1 X96.469 Y154.48 E43.02902
G1 X95.097 Y154.144 E43.0948
G1 X94.519 Y153.983 E43.12274
G1 X94.035 Y153.835 E43.1463
G1 X92.917 Y153.453 E43.20132
G1 X91.985 Y153.086 E43.24796
G1 X91.202 Y152.746 E43.28771
G1 X90.671 Y152.497 E43.31502
G1 X89.89 Y152.103 E43.35575
G1 X89.465 Y151.876 E43.37818
G1 X88.924 Y151.564 E43.40726
G1 X88.192 Y151.118 E43.44718
G1 X87.766 Y150.844 E43.47076
G1 X87.142 Y150.42 E43.50589
G1 X86.704 Y150.104 E43.53104
G1 X86.25 Y149.759 E43.55759
G1 X85.86 Y149.448 E43.58082
G1 X85.11 Y148.818 E43.62643
G1 X84.647 Y148.405 E43.65532
G1 X84.052 Y147.84 E43.69353
G1 X83.695 Y147.483 E43.71703
G1 X83.169 Y146.921 E43.75288
G1 X82.44 Y146.097 E43.80411
G1 X81.99 Y145.552 E43.83702
G1 X81.496 Y144.909 E43.87477
G1 X81.181 Y144.476 E43.89971
G1 X80.716 Y143.8 E43.93791
G1 X80.389 Y143.293 E43.966
G1 X79.913 Y142.505 E44.00887
G1 X79.619 Y141.985 E44.03669
G1 X79.294 Y141.368 E44.06916
G1 X79.091 Y140.96 E44.09038
G1 X78.663 Y140.032 E44.13797
G1 X78.363 Y139.322 E44.17386
G1 X78.036 Y138.469 E44.21639
G1 X77.894 Y138.061 E44.23651
G1 X77.641 Y137.268 E44.27527
G1 X77.461 Y136.652 E44.30515
G1 X77.194 Y135.6 E44.35569
G1 X77.066 Y134.994 E44.38453
G1 X76.879 Y133.957 E44.4336
G1 X76.758 Y133.15 E44.47159
G1 X76.645 Y132.096 E44.52095
G1 X76.609 Y131.598 E44.5442
G1 X76.56 Y130.425 E44.59887
G1 X76.55 Y129.436 E44.64493
G1 X76.555 Y105.108 E45.77774
G1 X76.564 Y104.679 E45.79772
G1 X76.619 Y103.378 E45.85835
G1 X76.672 Y102.626 E45.89346
G1 X76.722 Y102.154 E45.91556
G1 X76.814 Y101.437 E45.94922
G1 X76.89 Y100.94 E45.97263
G1 X77.092 Y99.866 E46.02352
G1 X77.247 Y99.171 E46.05667
G1 X77.374 Y98.662 E46.0811
G1 X77.557 Y98.003 E46.11295
G1 X77.848 Y97.075 E46.15823
G1 X77.996 Y96.648 E46.17928
G1 X78.257 Y95.949 E46.21402
G1 X78.447 Y95.477 E46.23771
G1 X78.802 Y94.654 E46.27945
G1 X79.077 Y94.068 E46.30959
G1 X79.45 Y93.335 E46.34789
G1 X79.666 Y92.934 E46.3691
G1 X79.965 Y92.417 E46.39691
G1 X80.562 Y91.44 E46.45022
G1 X80.923 Y90.889 E46.48089
G1 X81.35 Y90.282 E46.51545
G1 X81.656 Y89.871 E46.53931
G1 X82.096 Y89.318 E46.57222
